Adwaita++-Light/panel/16/si-syncthing-1.svg

<svg height="16" width="16" xmlns="http://www.w3.org/2000/svg">
  <path d="m8 1a7 7 0 0 0 -7 7 7 7 0 0 0 7 7 7 7 0 0 0 7-7 7 7 0 0 0 -7-7zm0 2a5 5 0 0 1 4.908203 4.0566406 1.5 1.5 0 0 1 1.091797 1.4433594 1.5 1.5 0 0 1 -1.421875 1.4960938 5 5 0 0 1 -2.5820312 2.5859372 1.5 1.5 0 0 1 -1.4960938 1.417969 1.5 1.5 0 0 1 -1.4433594-1.09375 5 5 0 0 1 -4.0566406-4.90625 5 5 0 0 1 .0019531-.0859375 1.5 1.5 0 0 1 -1.0019531-1.4140625 1.5 1.5 0 0 1 1.5-1.5 1.5 1.5 0 0 1 .4550781.0722656 5 5 0 0 1 4.0449219-2.0722656zm0 1a4 4 0 0 0 -3.2480469 1.6738281 1.5 1.5 0 0 1 .2480469.8261719 1.5 1.5 0 0 1 -.0039062.0605469l2.3769531.9511719a1.5 1.5 0 0 1 1.1269531-.5117188 1.5 1.5 0 0 1 1.4121094 1h1.1757816a1.5 1.5 0 0 1 .810547-.8710938 4 4 0 0 0 -3.898438-3.1289062zm-3.375 3.4882812a1.5 1.5 0 0 1 -.6210938.421875 4 4 0 0 0 -.0039062.0898438 4 4 0 0 0 3.1269531 3.900391 1.5 1.5 0 0 1 .8730469-.8125v-1.1757816a1.5 1.5 0 0 1 -1-1.4121094 1.5 1.5 0 0 1 .0039062-.0605469zm5.2871094 1.5117188a1.5 1.5 0 0 1 -.9121094.9121094v1.1757816a1.5 1.5 0 0 1 .7050781.52539 4 4 0 0 0 1.9062499-1.9062498 1.5 1.5 0 0 1 -.523437-.7070312z" fill="#444"/>
</svg>

<svg xmlns="http://www.w3.org/2000/svg" width="16" height="16" version="1.1">
 <defs>
  <style id="current-color-scheme" type="text/css">
   .ColorScheme-Text { color:#444444; } .ColorScheme-Highlight { color:#4285f4; }
  </style>
 </defs>
 <path style="fill:currentColor" class="ColorScheme-Text" d="M 8 1 A 7 7 0 0 0 1 8 A 7 7 0 0 0 8 15 A 7 7 0 0 0 15 8 A 7 7 0 0 0 8 1 z M 8 3 A 5 5 0 0 1 12.908203 7.0566406 A 1.5 1.5 0 0 1 14 8.5 A 1.5 1.5 0 0 1 12.578125 9.9960938 A 5 5 0 0 1 9.9960938 12.582031 A 1.5 1.5 0 0 1 8.5 14 A 1.5 1.5 0 0 1 7.0566406 12.90625 A 5 5 0 0 1 3 8 A 5 5 0 0 1 3.0019531 7.9140625 A 1.5 1.5 0 0 1 2 6.5 A 1.5 1.5 0 0 1 3.5 5 A 1.5 1.5 0 0 1 3.9550781 5.0722656 A 5 5 0 0 1 8 3 z M 8 4 A 4 4 0 0 0 4.7519531 5.6738281 A 1.5 1.5 0 0 1 5 6.5 A 1.5 1.5 0 0 1 4.9960938 6.5605469 L 7.3730469 7.5117188 A 1.5 1.5 0 0 1 8.5 7 A 1.5 1.5 0 0 1 9.9121094 8 L 11.087891 8 A 1.5 1.5 0 0 1 11.898438 7.1289062 A 4 4 0 0 0 8 4 z M 4.625 7.4882812 A 1.5 1.5 0 0 1 4.0039062 7.9101562 A 4 4 0 0 0 4 8 A 4 4 0 0 0 7.1269531 11.900391 A 1.5 1.5 0 0 1 8 11.087891 L 8 9.9121094 A 1.5 1.5 0 0 1 7 8.5 A 1.5 1.5 0 0 1 7.0039062 8.4394531 L 4.625 7.4882812 z M 9.9121094 9 A 1.5 1.5 0 0 1 9 9.9121094 L 9 11.087891 A 1.5 1.5 0 0 1 9.7050781 11.613281 A 4 4 0 0 0 11.611328 9.7070312 A 1.5 1.5 0 0 1 11.087891 9 L 9.9121094 9 z"/>
</svg>
